images/edg.svg

<svg height="250" viewBox="0 0 250 250" width="250" xmlns="http://www.w3.org/2000/svg"><path d="m250 125c0 69.035156-55.964844 125-125 125s-125-55.964844-125-125 55.964844-125 125-125 125 55.964844 125 125zm0 0" fill="#2b1544" fill-rule="evenodd"/><path d="m195.234375 97.671875v52c0 2.3125.117187 4.671875-.40625 6.945313-1.183594 5.261718-3.910156 10.046874-7.828125 13.75-1.84375 1.773437-4.140625 2.921874-6.335938 4.21875-14.898437 8.671874-29.75 17.367187-44.640624 26.054687-4.546876 2.429687-9.921876 2.84375-14.96875 2.21875-2.636719-.320313-5.183594-1.15625-7.5-2.453125-15.679688-9.140625-31.359376-18.304688-47.03125-27.4375-3.828126-2.132812-6.6875-5.648438-8.789063-9.429688-1.71875-3.28125-2.976563-6.890624-2.976563-10.648437v-56.140625c.289063-5.46875 2.710938-10.648438 6.15625-14.78125 1.394532-1.746094 3.085938-3.238281 4.992188-4.40625 14.570312-8.484375 29.140625-17 43.703125-25.515625 2.398437-1.328125 4.671875-2.953125 7.265625-3.84375 4.386719-1.371094 9.042969-1.632813 13.554688-.765625 2.007812.5625 4.054687 1.15625 5.859374 2.21875 15.859376 9.304688 31.742188 18.539062 47.59375 27.851562 4.226563 2.5 7.328126 6.679688 9.34375 11.140626 1.273438 2.8125 2.007813 5.914062 2.007813 9.023437zm-70.703125-19.34375c-3.363281 4.988281-7.261719 9.597656-11.617188 13.75-2.28125 2.164063-4.476562 4.5-5.78125 7.398437-1.046874 2.046876-1.75 4.375-1.453124 6.71875.351562 3.15625 2.601562 5.9375 5.523437 7.0625 2.96875 1.1875 6.328125.921876 9.28125-.234374.53125-.238282 1.121094-.320313 1.695313-.234376-.578126 3.703126-2.828126 6.828126-4.609376 10.023438l.078126.53125c1.609374 1.71875 3.304687 3.34375 4.90625 5.03125.40625.382812.78125.914062 1.34375 1.09375 1.867187-1.445312 3.328124-3.34375 5.046874-4.9375.382813-.4375 1.171876-.914062.757813-1.59375-1.664063-3.125-3.507813-6.289062-4.03125-9.898438.3125-.734374 1.195313-.117187 1.71875.0625 2.773437 1.359376 6.125 1.5625 9.023437.445313 3.945313-1.507813 6.398438-6.125 5.515626-10.296875-.671876-3.75-2.65625-7.1875-5.34375-9.8125-4.140626-4.257812-8.117188-8.804688-10.945313-14.070312-.203125-.492188-.605469-.871094-1.109375-1.039063zm-28.382812 50.859375c-4.6875 2.546875-7.820313 7.539062-8.59375 12.84375-1.070313 7.445312 3.28125 15.226562 10.023437 18.273438 4.265625 1.835937 9.21875 1.796874 13.515625.117187 2.21875-.890625 4.117188-2.34375 5.75-4.054687.617188-.65625 1.515625-1.242188 1.515625-2.25-.078125-1.007813-.984375-1.5625-1.570313-2.25-.765624-.679688-1.375-1.5625-2.25-2.101563-1.40625-.617187-2.25.921875-3.15625 1.6875-3.554687 3.609375-9.953124 3.640625-13.59375.117187-2.382812-2.242187-3.488281-5.523437-2.953124-8.75.4375-2.992187 2.21875-5.828124 4.875-7.25 1.71875-.859374 3.648437-1.328124 5.546874-1.242187 2.679688.171875 5.132813 1.59375 6.945313 3.546875 6.1875 6.15625 12.140625 12.539062 18.304687 18.71875 3.265626 3.226562 7.789063 5.296875 12.398438 5.117188 3.515625.078124 6.898438-1.328126 9.757812-3.3125 4.210938-2.929688 6.773438-8.015626 7.03125-13.15625.5625-8.140626-5.335937-16.351563-13.28125-17.921876-5.070312-1.03125-10.796874.03125-14.703124 3.640626-2.78125 2.53125-5.3125 5.375-8.0625 7.976562-2.835938-2.335938-5.078126-5.289062-7.851563-7.679688-1.183594-1.125-2.558594-2.027343-4.0625-2.664062-.28125-.179688-.375-.265625-.75-.414062-4.824219-2.050782-10.335937-1.675782-14.835937 1.007812zm39.351562 8.21875c2.023438-2.015625 4.882812-3.195312 7.734375-2.960938 3.09375.085938 6.09375 1.742188 7.734375 4.40625 2.5625 3.90625 1.8125 9.523438-1.484375 12.742188-3.390625 3.289062-9.203125 3.703125-12.851563.59375-2.710937-2.304688-4.984374-5.054688-7.578124-7.476562-.03125-.171876-.0625-.5-.09375-.648438 2.164062-2.25 4.375-4.40625 6.539062-6.65625zm0 0" fill="#fff"/></svg>

<svg xmlns="http://www.w3.org/2000/svg" xmlns:xlink="http://www.w3.org/1999/xlink" width="250px" height="250px" viewBox="0 0 250 250" version="1.1">
<g id="surface1">
<path style=" stroke:none;fill-rule:evenodd;fill:rgb(16.862746%,8.235294%,26.666668%);fill-opacity:1;" d="M 250 125 C 250 194.035156 194.035156 250 125 250 C 55.964844 250 0 194.035156 0 125 C 0 55.964844 55.964844 0 125 0 C 194.035156 0 250 55.964844 250 125 Z M 250 125 "/>
<path style=" stroke:none;fill-rule:nonzero;fill:rgb(100%,100%,100%);fill-opacity:1;" d="M 195.234375 97.671875 L 195.234375 149.671875 C 195.234375 151.984375 195.351562 154.34375 194.828125 156.617188 C 193.644531 161.878906 190.917969 166.664062 187 170.367188 C 185.15625 172.140625 182.859375 173.289062 180.664062 174.585938 C 165.765625 183.257812 150.914062 191.953125 136.023438 200.640625 C 131.476562 203.070312 126.101562 203.484375 121.054688 202.859375 C 118.417969 202.539062 115.871094 201.703125 113.554688 200.40625 C 97.875 191.265625 82.195312 182.101562 66.523438 172.96875 C 62.695312 170.835938 59.835938 167.320312 57.734375 163.539062 C 56.015625 160.257812 54.757812 156.648438 54.757812 152.890625 L 54.757812 96.75 C 55.046875 91.28125 57.46875 86.101562 60.914062 81.96875 C 62.308594 80.222656 64 78.730469 65.90625 77.5625 C 80.476562 69.078125 95.046875 60.5625 109.609375 52.046875 C 112.007812 50.71875 114.28125 49.09375 116.875 48.203125 C 121.261719 46.832031 125.917969 46.570312 130.429688 47.4375 C 132.4375 48 134.484375 48.59375 136.289062 49.65625 C 152.148438 58.960938 168.03125 68.195312 183.882812 77.507812 C 188.109375 80.007812 191.210938 84.1875 193.226562 88.648438 C 194.5 91.460938 195.234375 94.5625 195.234375 97.671875 Z M 124.53125 78.328125 C 121.167969 83.316406 117.269531 87.925781 112.914062 92.078125 C 110.632812 94.242188 108.4375 96.578125 107.132812 99.476562 C 106.085938 101.523438 105.382812 103.851562 105.679688 106.195312 C 106.03125 109.351562 108.28125 112.132812 111.203125 113.257812 C 114.171875 114.445312 117.53125 114.179688 120.484375 113.023438 C 121.015625 112.785156 121.605469 112.703125 122.179688 112.789062 C 121.601562 116.492188 119.351562 119.617188 117.570312 122.8125 L 117.648438 123.34375 C 119.257812 125.0625 120.953125 126.6875 122.554688 128.375 C 122.960938 128.757812 123.335938 129.289062 123.898438 129.46875 C 125.765625 128.023438 127.226562 126.125 128.945312 124.53125 C 129.328125 124.09375 130.117188 123.617188 129.703125 122.9375 C 128.039062 119.8125 126.195312 116.648438 125.671875 113.039062 C 125.984375 112.304688 126.867188 112.921875 127.390625 113.101562 C 130.164062 114.460938 133.515625 114.664062 136.414062 113.546875 C 140.359375 112.039062 142.8125 107.421875 141.929688 103.25 C 141.257812 99.5 139.273438 96.0625 136.585938 93.4375 C 132.445312 89.179688 128.46875 84.632812 125.640625 79.367188 C 125.4375 78.875 125.035156 78.496094 124.53125 78.328125 Z M 96.148438 129.1875 C 91.460938 131.734375 88.328125 136.726562 87.554688 142.03125 C 86.484375 149.476562 90.835938 157.257812 97.578125 160.304688 C 101.84375 162.140625 106.796875 162.101562 111.09375 160.421875 C 113.3125 159.53125 115.210938 158.078125 116.84375 156.367188 C 117.460938 155.710938 118.359375 155.125 118.359375 154.117188 C 118.28125 153.109375 117.375 152.554688 116.789062 151.867188 C 116.023438 151.1875 115.414062 150.304688 114.539062 149.765625 C 113.132812 149.148438 112.289062 150.6875 111.382812 151.453125 C 107.828125 155.0625 101.429688 155.09375 97.789062 151.570312 C 95.40625 149.328125 94.300781 146.046875 94.835938 142.820312 C 95.273438 139.828125 97.054688 136.992188 99.710938 135.570312 C 101.429688 134.710938 103.359375 134.242188 105.257812 134.328125 C 107.9375 134.5 110.390625 135.921875 112.203125 137.875 C 118.390625 144.03125 124.34375 150.414062 130.507812 156.59375 C 133.773438 159.820312 138.296875 161.890625 142.90625 161.710938 C 146.421875 161.789062 149.804688 160.382812 152.664062 158.398438 C 156.875 155.46875 159.4375 150.382812 159.695312 145.242188 C 160.257812 137.101562 154.359375 128.890625 146.414062 127.320312 C 141.34375 126.289062 135.617188 127.351562 131.710938 130.960938 C 128.929688 133.492188 126.398438 136.335938 123.648438 138.9375 C 120.8125 136.601562 118.570312 133.648438 115.796875 131.257812 C 114.613281 130.132812 113.238281 129.230469 111.734375 128.59375 C 111.453125 128.414062 111.359375 128.328125 110.984375 128.179688 C 106.160156 126.128906 100.648438 126.503906 96.148438 129.1875 Z M 135.5 137.40625 C 137.523438 135.390625 140.382812 134.210938 143.234375 134.445312 C 146.328125 134.53125 149.328125 136.1875 150.96875 138.851562 C 153.53125 142.757812 152.78125 148.375 149.484375 151.59375 C 146.09375 154.882812 140.28125 155.296875 136.632812 152.1875 C 133.921875 149.882812 131.648438 147.132812 129.054688 144.710938 C 129.023438 144.539062 128.992188 144.210938 128.960938 144.0625 C 131.125 141.8125 133.335938 139.65625 135.5 137.40625 Z M 135.5 137.40625 "/>
</g>
</svg>
